X:58
T:La Morvandelle
R:marche
C:trad.
A:Morvan
O:France
M:2/4
L:1/8
Q:1/4=90
K:C
cBAG|c2c2|d>e dB|A2G2:|
cdef|e2e2|d>c Bc|d4|defd|c2d2|G>G AB|c4||
